X:14
T:14 Stone Steps Hornpipe
C:Welch MS
I:abc2nwc
M:C
L:1/8
K:G
GABc d2g2|ecAG GFED|ECB,C A,2B2|cecA GFED|
GABc d2g2|ecAG GFED|ECB,C A,2B2|cAGF G2G2:|
DEFG ABcA|BcdA GFED|EFGE D2g2|fed^c d2d2|
ecBA dBAG|cecA GFED|ECB,C A,2B2|cAGF G2G2:|


